black/svg/25E9.svg

<svg id="emoji" viewBox="0 0 72 72" xmlns="http://www.w3.org/2000/svg">
  <g id="line">
    <path fill="none" stroke="#000" stroke-linejoin="round" stroke-width="2" d="m59.0349,60H12.9649c-.2557-.0008-.5007-.1027-.6815-.2836-.1808-.1808-.2827-.4258-.2834-.6815V12.9649c.0008-.2557.1027-.5007.2836-.6815.1808-.1808.4258-.2827.6815-.2834h46.07c.2557.0008.5007.1027.6815.2836.1808.1808.2827.4258.2834.6815v46.07c-.0008.2557-.1027.5007-.2836.6815-.1808.1808-.4258.2827-.6815.2834h0Z"/>
    <path fill="none" stroke="#000" stroke-linecap="round" stroke-width="2" d="m59,13L15,57"/>
  </g>
</svg>

<svg id="emoji" viewBox="0 0 72 72" xmlns="http://www.w3.org/2000/svg">
  <g id="line-supplement">
    <path fill="#000" d="M12.5 12L60.5 13L12.5 61V12Z"/>
  </g>
  <g id="line">
    <path fill="none" stroke="#000" stroke-linejoin="round" stroke-width="2" d="M59.0349 60H12.9649C12.7092 59.9992 12.4642 59.8973 12.2834 59.7164C12.1026 59.5356 12.0007 59.2906 12 59.0349V12.9649C12.0008 12.7092 12.1027 12.4642 12.2836 12.2834C12.4644 12.1026 12.7094 12.0007 12.9651 12H59.0351C59.2908 12.0008 59.5358 12.1027 59.7166 12.2836C59.8974 12.4644 59.9993 12.7094 60 12.9651V59.0351C59.9992 59.2908 59.8973 59.5358 59.7164 59.7166C59.5356 59.8974 59.2906 59.9993 59.0349 60V60Z"/>
    <path fill="none" stroke="#000" stroke-linecap="round" stroke-width="2" d="M59 13L15 57"/>
  </g>
</svg>
